X: 123
T:Tam Lin [in D; DeZarn]
M:C|
L:1/8
S:After Joe DeZarn
R:Reel
K:DMin
G,[|:A,2DA, CDEC|B,2DB, FB,DB,|CE~E2 GEEG,|CDEG EDCG,|!
A,2DA, CDEC|B,2DB, FB,DB,|CE~E2 GE~E2|1FEDC D3G,:|2FEDC D3A|!
|:dA~A2 FDFA|dA~A2 FDFA|cGEG dGEG|cGEG dcAc|!
"var."dAAD FDFA|dA~A2 FDA,D|B,A,B,C DCDE|1FcFE (3FED DA:|2FcFE (3FED DG,
|]!
